X: 1
T: Quadrille - a'Bonaparte
B: Trästadsamlingen
O: Blackstad, Småland
R: Kadrilj
M: 6/8
L: 1/8
Q: 180
K: F
C|:FGA GFE|D2D DEF|G2G GAB|Acc c2 c|fga gfe|d2 d def|g2 g bge|1 f2 f f2C:|2 f2 f f2 c|]
|:cAc cAc|cBG cBG|cAF cAF|1 [GB][GC][GC] [G2C2] c:|2 [GB][GC][GC] [G2C2] A|]
|:AAA d2 A|AAA e2 d|fdf e^ce|dAA A2 z|ddd ccc|BBB AAA|GFE ED^C|1 DDD D2 A:|2 DDD D2 C|]
FGA GFE|D2 D DEF|G2G GAB|Acc c2 c|fga gfe|d2 d def|g2 g bge|f2 f f2|]

